report_00007_2020-12-11T15:55:29.892Z/total-blocking-time/comparison/sorted/1_vs_2.svg

<svg width="640" height="500" xmlns="http://www.w3.org/2000/svg" xmlns:xlink="http://www.w3.org/1999/xlink"><path fill="#fff" d="M0 0h640v500H0z"/><defs><path id="d" stroke-width=".222" stroke="currentColor" d="M-1-1h2v2h-2z"/><path id="b" stroke-width=".222" stroke="currentColor" d="M0-1.33l-1.33 2h2.66z"/><path id="f" stroke-width=".222" stroke="currentColor" d="M0 1.33L1.265.411.782-1.067l-1.564-.009-.483 1.487z"/><use xlink:href="#b" id="c" stroke="currentColor" transform="rotate(180)"/><use xlink:href="#d" id="e" stroke="currentColor" transform="rotate(45)"/><circle id="a" stroke-width=".222" stroke="currentColor" cx="0" cy="0" r="1"/></defs><g fill="none" color="#000" stroke="currentColor"><path stroke="#000" d="M53.9 380h9m552.1 0h-9"/><text transform="translate(45.6 383.9)" stroke="none" fill="#000" font-family="Arial" font-size="12" text-anchor="end"><tspan>200</tspan></text></g><g fill="none" color="#000" stroke="currentColor"><path stroke="#000" d="M53.9 288.7h9m552.1 0h-9"/><text transform="translate(45.6 292.6)" stroke="none" fill="#000" font-family="Arial" font-size="12" text-anchor="end"><tspan>250</tspan></text></g><g fill="none" color="#000" stroke="currentColor"><path stroke="#000" d="M53.9 197.5h9m552.1 0h-9"/><text transform="translate(45.6 201.4)" stroke="none" fill="#000" font-family="Arial" font-size="12" text-anchor="end"><tspan>300</tspan></text></g><g fill="none" color="#000" stroke="currentColor"><path stroke="#000" d="M53.9 106.3h9m552.1 0h-9"/><text transform="translate(45.6 110.2)" stroke="none" fill="#000" font-family="Arial" font-size="12" text-anchor="end"><tspan>350</tspan></text></g><g fill="none" color="#000" stroke="currentColor"><path stroke="#000" d="M53.9 428v-9m0-400.9v9"/><text transform="translate(53.9 449.9)" stroke="none" fill="#000" font-family="Arial" font-size="12" text-anchor="middle"><tspan>0</tspan></text></g><g fill="none" color="#000" stroke="currentColor"><path stroke="#000" d="M110.6 428v-9m0-400.9v9"/><text transform="translate(110.6 449.9)" stroke="none" fill="#000" font-family="Arial" font-size="12" text-anchor="middle"><tspan>10</tspan></text></g><g fill="none" color="#000" stroke="currentColor"><path stroke="#000" d="M167.3 428v-9m0-400.9v9"/><text transform="translate(167.3 449.9)" stroke="none" fill="#000" font-family="Arial" font-size="12" text-anchor="middle"><tspan>20</tspan></text></g><g fill="none" color="#000" stroke="currentColor"><path stroke="#000" d="M223.9 428v-9m0-400.9v9"/><text transform="translate(223.9 449.9)" stroke="none" fill="#000" font-family="Arial" font-size="12" text-anchor="middle"><tspan>30</tspan></text></g><g fill="none" color="#000" stroke="currentColor"><path stroke="#000" d="M280.6 428v-9m0-400.9v9"/><text transform="translate(280.6 449.9)" stroke="none" fill="#000" font-family="Arial" font-size="12" text-anchor="middle"><tspan>40</tspan></text></g><g fill="none" color="#000" stroke="currentColor"><path stroke="#000" d="M337.3 428v-9m0-400.9v9"/><text transform="translate(337.3 449.9)" stroke="none" fill="#000" font-family="Arial" font-size="12" text-anchor="middle"><tspan>50</tspan></text></g><g fill="none" color="#000" stroke="currentColor"><path stroke="#000" d="M394 428v-9m0-400.9v9"/><text transform="translate(394 449.9)" stroke="none" fill="#000" font-family="Arial" font-size="12" text-anchor="middle"><tspan>60</tspan></text></g><g fill="none" color="#000" stroke="currentColor"><path stroke="#000" d="M450.6 428v-9m0-400.9v9"/><text transform="translate(450.6 449.9)" stroke="none" fill="#000" font-family="Arial" font-size="12" text-anchor="middle"><tspan>70</tspan></text></g><g fill="none" color="#000" stroke="currentColor"><path stroke="#000" d="M507.3 428v-9m0-400.9v9"/><text transform="translate(507.3 449.9)" stroke="none" fill="#000" font-family="Arial" font-size="12" text-anchor="middle"><tspan>80</tspan></text></g><g fill="none" color="#000" stroke="currentColor"><path stroke="#000" d="M564 428v-9m0-400.9v9"/><text transform="translate(564 449.9)" stroke="none" fill="#000" font-family="Arial" font-size="12" text-anchor="middle"><tspan>90</tspan></text></g><path stroke="#000" d="M53.9 18.1V428H615V18.1H53.9z" fill="none" color="#000"/><text transform="translate(275.6 467.9)" stroke="none" fill="#000" font-family="Arial" font-size="12" text-anchor="end" color="#000"><tspan>pages</tspan></text><path stroke="#9400D3" d="M283.9 464h42.2M53.9 420.1l5.7-31.9 5.6-27.4 5.7-112.7 5.7-6.8h5.6l5.7-7.3h5.7l5.6-1.8 5.7-1.9h11.3l5.7-1.8h5.7l5.6-3.6h5.7l5.7-1.7 5.7-.2h5.6l5.7-1.8h11.3l5.7-1.8h22.7l5.6-1.8h5.7l5.7-1.8h34l5.6-1.9h17l5.7-1.8h17l5.7-1.8h17l5.6-1.8h11.4l5.7-1.9h22.6l5.7-1.8h11.3l5.7-1.8H411l5.6-1.8h5.7l5.7-1.9h34l5.6-1.8h5.7l5.7-1.8h22.6l5.7-1.8h11.3l5.7-1.9h11.4l5.6-1.8 5.7-1.8h11.3l5.7-1.8 5.7-1.9 5.6-1.8 5.7-1.8h11.3l5.7-5.5 5.7-3.6 5.6-31.1L615 26" fill="none" color="#000"/><text transform="translate(275.6 485.9)" stroke="none" fill="#000" font-family="Arial" font-size="12" text-anchor="end" color="#000"><tspan>pages+cached</tspan></text><path stroke="#009E73" d="M283.9 482h42.2M53.9 420.1l5.7-46.9 5.6-117.3h17l5.7-1.8h17l5.7-1.9h22.6l5.7-1.8H189.9l5.7-1.8h17l5.7-1.8h17l5.6-1.9h22.7l5.7-1.8h5.6l5.7-1.8h11.3l5.7-1.8h5.7l5.6-3.7h5.7l5.7-1.8h11.3l5.7-1.8h5.7l5.6-11 5.7-3.6 5.7-5.5 5.6-1.8h17l5.7-1.8h11.3l5.7-1.9h5.7l5.6-1.8h22.7l5.7-1.8h28.3l5.7-1.8h17l5.6-1.9h17l5.7-3.6h5.7l5.7-1.8h5.6l5.7-3.7h11.3l5.7-3.6 5.7-1.9 5.6-3.6 5.7-5.5 5.7-9.1 5.6-12.8 5.7-27.4 5.7-3.6 5.6-16.4 5.7-5.5" fill="none" color="#000"/><text transform="translate(467.2 467.9)" stroke="none" fill="#000" font-family="Arial" font-size="12" text-anchor="end" color="#000"><tspan>score p10=287</tspan></text><path stroke="#56B4E9" d="M475.5 464h42.2M53.9 221.2H615" fill="none" color="#000"/><g><text transform="translate(467.2 485.9)" stroke="none" fill="#000" font-family="Arial" font-size="12" text-anchor="end" color="#000"><tspan>score median=600</tspan></text><path stroke="#E69F00" d="M475.5 482h42.2" fill="none" color="#000"/></g><g fill="none" color="#000" stroke="currentColor"><path stroke="#000" d="M53.9 18.1V428H615V18.1H53.9z"/></g></svg>

<?xml version="1.0" encoding="utf-8"  standalone="no"?>
<svg 
 width="640" height="500"
 viewBox="0 0 640 500"
 xmlns="http://www.w3.org/2000/svg"
 xmlns:xlink="http://www.w3.org/1999/xlink"
>

<title>Gnuplot</title>
<desc>Produced by GNUPLOT 5.4 patchlevel 0 </desc>

<g id="gnuplot_canvas">

<rect x="0" y="0" width="640" height="500" fill="#ffffff"/>
<defs>

	<circle id='gpDot' r='0.5' stroke-width='0.5' stroke='currentColor'/>
	<path id='gpPt0' stroke-width='0.222' stroke='currentColor' d='M-1,0 h2 M0,-1 v2'/>
	<path id='gpPt1' stroke-width='0.222' stroke='currentColor' d='M-1,-1 L1,1 M1,-1 L-1,1'/>
	<path id='gpPt2' stroke-width='0.222' stroke='currentColor' d='M-1,0 L1,0 M0,-1 L0,1 M-1,-1 L1,1 M-1,1 L1,-1'/>
	<rect id='gpPt3' stroke-width='0.222' stroke='currentColor' x='-1' y='-1' width='2' height='2'/>
	<rect id='gpPt4' stroke-width='0.222' stroke='currentColor' fill='currentColor' x='-1' y='-1' width='2' height='2'/>
	<circle id='gpPt5' stroke-width='0.222' stroke='currentColor' cx='0' cy='0' r='1'/>
	<use xlink:href='#gpPt5' id='gpPt6' fill='currentColor' stroke='none'/>
	<path id='gpPt7' stroke-width='0.222' stroke='currentColor' d='M0,-1.33 L-1.33,0.67 L1.33,0.67 z'/>
	<use xlink:href='#gpPt7' id='gpPt8' fill='currentColor' stroke='none'/>
	<use xlink:href='#gpPt7' id='gpPt9' stroke='currentColor' transform='rotate(180)'/>
	<use xlink:href='#gpPt9' id='gpPt10' fill='currentColor' stroke='none'/>
	<use xlink:href='#gpPt3' id='gpPt11' stroke='currentColor' transform='rotate(45)'/>
	<use xlink:href='#gpPt11' id='gpPt12' fill='currentColor' stroke='none'/>
	<path id='gpPt13' stroke-width='0.222' stroke='currentColor' d='M0,1.330 L1.265,0.411 L0.782,-1.067 L-0.782,-1.076 L-1.265,0.411 z'/>
	<use xlink:href='#gpPt13' id='gpPt14' fill='currentColor' stroke='none'/>
	<filter id='textbox' filterUnits='objectBoundingBox' x='0' y='0' height='1' width='1'>
	  <feFlood flood-color='#FFFFFF' flood-opacity='1' result='bgnd'/>
	  <feComposite in='SourceGraphic' in2='bgnd' operator='atop'/>
	</filter>
	<filter id='greybox' filterUnits='objectBoundingBox' x='0' y='0' height='1' width='1'>
	  <feFlood flood-color='lightgrey' flood-opacity='1' result='grey'/>
	  <feComposite in='SourceGraphic' in2='grey' operator='atop'/>
	</filter>
</defs>
<g fill="none" color="#FFFFFF" stroke="black" stroke-width="1.00" stroke-linecap="butt" stroke-linejoin="miter">
</g>
<g fill="none" color="black" stroke="currentColor" stroke-width="1.00" stroke-linecap="butt" stroke-linejoin="miter">
	<path stroke='black'  d='M53.9,380.0 L62.9,380.0 M615.0,380.0 L606.0,380.0  '/>	<g transform="translate(45.6,383.9)" stroke="none" fill="black" font-family="Arial" font-size="12.00"  text-anchor="end">
		<text><tspan font-family="Arial" > 200</tspan></text>
	</g>
</g>
<g fill="none" color="black" stroke="currentColor" stroke-width="1.00" stroke-linecap="butt" stroke-linejoin="miter">
	<path stroke='black'  d='M53.9,288.7 L62.9,288.7 M615.0,288.7 L606.0,288.7  '/>	<g transform="translate(45.6,292.6)" stroke="none" fill="black" font-family="Arial" font-size="12.00"  text-anchor="end">
		<text><tspan font-family="Arial" > 250</tspan></text>
	</g>
</g>
<g fill="none" color="black" stroke="currentColor" stroke-width="1.00" stroke-linecap="butt" stroke-linejoin="miter">
	<path stroke='black'  d='M53.9,197.5 L62.9,197.5 M615.0,197.5 L606.0,197.5  '/>	<g transform="translate(45.6,201.4)" stroke="none" fill="black" font-family="Arial" font-size="12.00"  text-anchor="end">
		<text><tspan font-family="Arial" > 300</tspan></text>
	</g>
</g>
<g fill="none" color="black" stroke="currentColor" stroke-width="1.00" stroke-linecap="butt" stroke-linejoin="miter">
	<path stroke='black'  d='M53.9,106.3 L62.9,106.3 M615.0,106.3 L606.0,106.3  '/>	<g transform="translate(45.6,110.2)" stroke="none" fill="black" font-family="Arial" font-size="12.00"  text-anchor="end">
		<text><tspan font-family="Arial" > 350</tspan></text>
	</g>
</g>
<g fill="none" color="black" stroke="currentColor" stroke-width="1.00" stroke-linecap="butt" stroke-linejoin="miter">
	<path stroke='black'  d='M53.9,428.0 L53.9,419.0 M53.9,18.1 L53.9,27.1  '/>	<g transform="translate(53.9,449.9)" stroke="none" fill="black" font-family="Arial" font-size="12.00"  text-anchor="middle">
		<text><tspan font-family="Arial" > 0</tspan></text>
	</g>
</g>
<g fill="none" color="black" stroke="currentColor" stroke-width="1.00" stroke-linecap="butt" stroke-linejoin="miter">
	<path stroke='black'  d='M110.6,428.0 L110.6,419.0 M110.6,18.1 L110.6,27.1  '/>	<g transform="translate(110.6,449.9)" stroke="none" fill="black" font-family="Arial" font-size="12.00"  text-anchor="middle">
		<text><tspan font-family="Arial" > 10</tspan></text>
	</g>
</g>
<g fill="none" color="black" stroke="currentColor" stroke-width="1.00" stroke-linecap="butt" stroke-linejoin="miter">
	<path stroke='black'  d='M167.3,428.0 L167.3,419.0 M167.3,18.1 L167.3,27.1  '/>	<g transform="translate(167.3,449.9)" stroke="none" fill="black" font-family="Arial" font-size="12.00"  text-anchor="middle">
		<text><tspan font-family="Arial" > 20</tspan></text>
	</g>
</g>
<g fill="none" color="black" stroke="currentColor" stroke-width="1.00" stroke-linecap="butt" stroke-linejoin="miter">
	<path stroke='black'  d='M223.9,428.0 L223.9,419.0 M223.9,18.1 L223.9,27.1  '/>	<g transform="translate(223.9,449.9)" stroke="none" fill="black" font-family="Arial" font-size="12.00"  text-anchor="middle">
		<text><tspan font-family="Arial" > 30</tspan></text>
	</g>
</g>
<g fill="none" color="black" stroke="currentColor" stroke-width="1.00" stroke-linecap="butt" stroke-linejoin="miter">
	<path stroke='black'  d='M280.6,428.0 L280.6,419.0 M280.6,18.1 L280.6,27.1  '/>	<g transform="translate(280.6,449.9)" stroke="none" fill="black" font-family="Arial" font-size="12.00"  text-anchor="middle">
		<text><tspan font-family="Arial" > 40</tspan></text>
	</g>
</g>
<g fill="none" color="black" stroke="currentColor" stroke-width="1.00" stroke-linecap="butt" stroke-linejoin="miter">
	<path stroke='black'  d='M337.3,428.0 L337.3,419.0 M337.3,18.1 L337.3,27.1  '/>	<g transform="translate(337.3,449.9)" stroke="none" fill="black" font-family="Arial" font-size="12.00"  text-anchor="middle">
		<text><tspan font-family="Arial" > 50</tspan></text>
	</g>
</g>
<g fill="none" color="black" stroke="currentColor" stroke-width="1.00" stroke-linecap="butt" stroke-linejoin="miter">
	<path stroke='black'  d='M394.0,428.0 L394.0,419.0 M394.0,18.1 L394.0,27.1  '/>	<g transform="translate(394.0,449.9)" stroke="none" fill="black" font-family="Arial" font-size="12.00"  text-anchor="middle">
		<text><tspan font-family="Arial" > 60</tspan></text>
	</g>
</g>
<g fill="none" color="black" stroke="currentColor" stroke-width="1.00" stroke-linecap="butt" stroke-linejoin="miter">
	<path stroke='black'  d='M450.6,428.0 L450.6,419.0 M450.6,18.1 L450.6,27.1  '/>	<g transform="translate(450.6,449.9)" stroke="none" fill="black" font-family="Arial" font-size="12.00"  text-anchor="middle">
		<text><tspan font-family="Arial" > 70</tspan></text>
	</g>
</g>
<g fill="none" color="black" stroke="currentColor" stroke-width="1.00" stroke-linecap="butt" stroke-linejoin="miter">
	<path stroke='black'  d='M507.3,428.0 L507.3,419.0 M507.3,18.1 L507.3,27.1  '/>	<g transform="translate(507.3,449.9)" stroke="none" fill="black" font-family="Arial" font-size="12.00"  text-anchor="middle">
		<text><tspan font-family="Arial" > 80</tspan></text>
	</g>
</g>
<g fill="none" color="black" stroke="currentColor" stroke-width="1.00" stroke-linecap="butt" stroke-linejoin="miter">
	<path stroke='black'  d='M564.0,428.0 L564.0,419.0 M564.0,18.1 L564.0,27.1  '/>	<g transform="translate(564.0,449.9)" stroke="none" fill="black" font-family="Arial" font-size="12.00"  text-anchor="middle">
		<text><tspan font-family="Arial" > 90</tspan></text>
	</g>
</g>
<g fill="none" color="black" stroke="currentColor" stroke-width="1.00" stroke-linecap="butt" stroke-linejoin="miter">
</g>
<g fill="none" color="black" stroke="currentColor" stroke-width="1.00" stroke-linecap="butt" stroke-linejoin="miter">
	<path stroke='black'  d='M53.9,18.1 L53.9,428.0 L615.0,428.0 L615.0,18.1 L53.9,18.1 Z  '/></g>
<g fill="none" color="black" stroke="currentColor" stroke-width="1.00" stroke-linecap="butt" stroke-linejoin="miter">
</g>
	<g id="gnuplot_plot_1" ><title>pages</title>
<g fill="none" color="black" stroke="currentColor" stroke-width="1.00" stroke-linecap="butt" stroke-linejoin="miter">
	<g transform="translate(275.6,467.9)" stroke="none" fill="black" font-family="Arial" font-size="12.00"  text-anchor="end">
		<text><tspan font-family="Arial" >pages</tspan></text>
	</g>
</g>
<g fill="none" color="black" stroke="currentColor" stroke-width="1.00" stroke-linecap="butt" stroke-linejoin="miter">
	<path stroke='rgb(148,   0, 211)'  d='M283.9,464.0 L326.1,464.0 M53.9,420.1 L59.6,388.2 L65.2,360.8 L70.9,248.1 L76.6,241.3 L82.2,241.3
		L87.9,234.0 L93.6,234.0 L99.2,232.2 L104.9,230.3 L110.6,230.3 L116.2,230.3 L121.9,228.5 L127.6,228.5
		L133.2,224.9 L138.9,224.9 L144.6,223.2 L150.3,223.0 L155.9,223.0 L161.6,221.2 L167.3,221.2 L172.9,221.2
		L178.6,219.4 L184.3,219.4 L189.9,219.4 L195.6,219.4 L201.3,219.4 L206.9,217.6 L212.6,217.6 L218.3,215.8
		L223.9,215.8 L229.6,215.8 L235.3,215.8 L240.9,215.8 L246.6,215.8 L252.3,215.8 L257.9,213.9 L263.6,213.9
		L269.3,213.9 L274.9,213.9 L280.6,212.1 L286.3,212.1 L291.9,212.1 L297.6,212.1 L303.3,210.3 L308.9,210.3
		L314.6,210.3 L320.3,210.3 L325.9,208.5 L331.6,208.5 L337.3,208.5 L343.0,206.6 L348.6,206.6 L354.3,206.6
		L360.0,206.6 L365.6,206.6 L371.3,204.8 L377.0,204.8 L382.6,204.8 L388.3,203.0 L394.0,203.0 L399.6,203.0
		L405.3,203.0 L411.0,203.0 L416.6,201.2 L422.3,201.2 L428.0,199.3 L433.6,199.3 L439.3,199.3 L445.0,199.3
		L450.6,199.3 L456.3,199.3 L462.0,199.3 L467.6,197.5 L473.3,197.5 L479.0,195.7 L484.6,195.7 L490.3,195.7
		L496.0,195.7 L501.6,195.7 L507.3,193.9 L513.0,193.9 L518.6,193.9 L524.3,192.0 L530.0,192.0 L535.7,192.0
		L541.3,190.2 L547.0,188.4 L552.7,188.4 L558.3,188.4 L564.0,186.6 L569.7,184.7 L575.3,182.9 L581.0,181.1
		L586.7,181.1 L592.3,181.1 L598.0,175.6 L603.7,172.0 L609.3,140.9 L615.0,26.0  '/></g>
	</g>
	<g id="gnuplot_plot_2" ><title>pages+cached</title>
<g fill="none" color="black" stroke="currentColor" stroke-width="1.00" stroke-linecap="butt" stroke-linejoin="miter">
	<g transform="translate(275.6,485.9)" stroke="none" fill="black" font-family="Arial" font-size="12.00"  text-anchor="end">
		<text><tspan font-family="Arial" >pages+cached</tspan></text>
	</g>
</g>
<g fill="none" color="black" stroke="currentColor" stroke-width="1.00" stroke-linecap="butt" stroke-linejoin="miter">
	<path stroke='rgb(  0, 158, 115)'  d='M283.9,482.0 L326.1,482.0 M53.9,420.1 L59.6,373.2 L65.2,255.9 L70.9,255.9 L76.6,255.9 L82.2,255.9
		L87.9,254.1 L93.6,254.1 L99.2,254.1 L104.9,254.1 L110.6,252.2 L116.2,252.2 L121.9,252.2 L127.6,252.2
		L133.2,252.2 L138.9,250.4 L144.6,250.4 L150.3,250.4 L155.9,250.4 L161.6,250.4 L167.3,250.4 L172.9,250.4
		L178.6,250.4 L184.3,250.4 L189.9,250.4 L195.6,248.6 L201.3,248.6 L206.9,248.6 L212.6,248.6 L218.3,246.8
		L223.9,246.8 L229.6,246.8 L235.3,246.8 L240.9,244.9 L246.6,244.9 L252.3,244.9 L257.9,244.9 L263.6,244.9
		L269.3,243.1 L274.9,243.1 L280.6,241.3 L286.3,241.3 L291.9,241.3 L297.6,239.5 L303.3,239.5 L308.9,235.8
		L314.6,235.8 L320.3,234.0 L325.9,234.0 L331.6,234.0 L337.3,232.2 L343.0,232.2 L348.6,221.2 L354.3,217.6
		L360.0,212.1 L365.6,210.3 L371.3,210.3 L377.0,210.3 L382.6,210.3 L388.3,208.5 L394.0,208.5 L399.6,208.5
		L405.3,206.6 L411.0,206.6 L416.6,204.8 L422.3,204.8 L428.0,204.8 L433.6,204.8 L439.3,204.8 L445.0,203.0
		L450.6,203.0 L456.3,203.0 L462.0,203.0 L467.6,203.0 L473.3,203.0 L479.0,201.2 L484.6,201.2 L490.3,201.2
		L496.0,201.2 L501.6,199.3 L507.3,199.3 L513.0,199.3 L518.6,199.3 L524.3,195.7 L530.0,195.7 L535.7,193.9
		L541.3,193.9 L547.0,190.2 L552.7,190.2 L558.3,190.2 L564.0,186.6 L569.7,184.7 L575.3,181.1 L581.0,175.6
		L586.7,166.5 L592.3,153.7 L598.0,126.3 L603.7,122.7 L609.3,106.3 L615.0,100.8  '/></g>
	</g>
	<g id="gnuplot_plot_3" ><title>score p10=287</title>
<g fill="none" color="black" stroke="currentColor" stroke-width="1.00" stroke-linecap="butt" stroke-linejoin="miter">
	<g transform="translate(467.2,467.9)" stroke="none" fill="black" font-family="Arial" font-size="12.00"  text-anchor="end">
		<text><tspan font-family="Arial" >score p10=287</tspan></text>
	</g>
</g>
<g fill="none" color="black" stroke="currentColor" stroke-width="1.00" stroke-linecap="butt" stroke-linejoin="miter">
	<path stroke='rgb( 86, 180, 233)'  d='M475.5,464.0 L517.7,464.0 M53.9,221.2 L59.6,221.2 L65.2,221.2 L70.9,221.2 L76.6,221.2 L82.2,221.2
		L87.9,221.2 L93.6,221.2 L99.2,221.2 L104.9,221.2 L110.6,221.2 L116.2,221.2 L121.9,221.2 L127.6,221.2
		L133.2,221.2 L138.9,221.2 L144.6,221.2 L150.3,221.2 L155.9,221.2 L161.6,221.2 L167.3,221.2 L172.9,221.2
		L178.6,221.2 L184.3,221.2 L189.9,221.2 L195.6,221.2 L201.3,221.2 L206.9,221.2 L212.6,221.2 L218.3,221.2
		L223.9,221.2 L229.6,221.2 L235.3,221.2 L240.9,221.2 L246.6,221.2 L252.3,221.2 L257.9,221.2 L263.6,221.2
		L269.3,221.2 L274.9,221.2 L280.6,221.2 L286.3,221.2 L291.9,221.2 L297.6,221.2 L303.3,221.2 L308.9,221.2
		L314.6,221.2 L320.3,221.2 L325.9,221.2 L331.6,221.2 L337.3,221.2 L343.0,221.2 L348.6,221.2 L354.3,221.2
		L360.0,221.2 L365.6,221.2 L371.3,221.2 L377.0,221.2 L382.6,221.2 L388.3,221.2 L394.0,221.2 L399.6,221.2
		L405.3,221.2 L411.0,221.2 L416.6,221.2 L422.3,221.2 L428.0,221.2 L433.6,221.2 L439.3,221.2 L445.0,221.2
		L450.6,221.2 L456.3,221.2 L462.0,221.2 L467.6,221.2 L473.3,221.2 L479.0,221.2 L484.6,221.2 L490.3,221.2
		L496.0,221.2 L501.6,221.2 L507.3,221.2 L513.0,221.2 L518.6,221.2 L524.3,221.2 L530.0,221.2 L535.7,221.2
		L541.3,221.2 L547.0,221.2 L552.7,221.2 L558.3,221.2 L564.0,221.2 L569.7,221.2 L575.3,221.2 L581.0,221.2
		L586.7,221.2 L592.3,221.2 L598.0,221.2 L603.7,221.2 L609.3,221.2 L615.0,221.2  '/></g>
	</g>
	<g id="gnuplot_plot_4" ><title>score median=600</title>
<g fill="none" color="black" stroke="currentColor" stroke-width="1.00" stroke-linecap="butt" stroke-linejoin="miter">
	<g transform="translate(467.2,485.9)" stroke="none" fill="black" font-family="Arial" font-size="12.00"  text-anchor="end">
		<text><tspan font-family="Arial" >score median=600</tspan></text>
	</g>
</g>
<g fill="none" color="black" stroke="currentColor" stroke-width="1.00" stroke-linecap="butt" stroke-linejoin="miter">
	<path stroke='rgb(230, 159,   0)'  d='M475.5,482.0 L517.7,482.0  '/></g>
	</g>
<g fill="none" color="#FFFFFF" stroke="rgb(230, 159,   0)" stroke-width="2.00" stroke-linecap="butt" stroke-linejoin="miter">
</g>
<g fill="none" color="black" stroke="currentColor" stroke-width="2.00" stroke-linecap="butt" stroke-linejoin="miter">
</g>
<g fill="none" color="black" stroke="black" stroke-width="1.00" stroke-linecap="butt" stroke-linejoin="miter">
</g>
<g fill="none" color="black" stroke="currentColor" stroke-width="1.00" stroke-linecap="butt" stroke-linejoin="miter">
	<path stroke='black'  d='M53.9,18.1 L53.9,428.0 L615.0,428.0 L615.0,18.1 L53.9,18.1 Z  '/></g>
<g fill="none" color="black" stroke="currentColor" stroke-width="1.00" stroke-linecap="butt" stroke-linejoin="miter">
</g>
</g>
</svg>
